X:1
T:Cappy's Hill
M:4/4
L:1/8
C:Ed Yother
C:c.2003
C:http://edyother.com
R:Hornpipe
K:G
(3DEF|G2G2BG Bc|de dcB2(3AGF|A2A2cB cG|AB AF D2(3DEF|
GF GA BA Bc|de dc B2(3AGF|A2A2c2(3AGF|[1 G2B2G2:|[2 G2B2G2(3def|
|: gf gd BA Bc|de dc B2(3AGF|A2A2cB cG|Bc d2d2(3def|
gf gd BA Bc|de dc B2(3AGF|A2A2c2(3AGF|[1 G2B2G2 (3def:|[2 G2B2G2||

